X:1
T:Contra Danza
T:Contra Danza
T:Author anonimo
C:Author anonimo
%%score { ( 1 3 ) | ( 2 4 ) }
L:1/8
M:2/4
K:Eb
V:1 treble nm="Piano" snm="Pno."
V:3 treble 
V:2 bass 
V:4 bass 
V:1
 z B/B/ |:S BG z [Ge]/[Ge]/ | [Ge][GB] z [GB] | g>f e/d/c/B/ | AF z A/A/ | AF z [Fd]/[Fd]/ | %6
 [Fd][FB] z [FB] ||1 f>e d/c/B/A/ | G2 z B/B/ :|2 f>e d/e/f/f/ || [Ge] z [eg]2 ||[M:6/8] [eb]6- | %12
 [eb]ag f2 e | [Ad]6 | A F2 D [Fdfb]2 | [da]6- | [da]fg agf | [Ge]2 z z2 z | B G2 E [Geg]2 | %19
 [eb]6- | [eb] [eg]2 [fa] [gb]2 | [ec']6 ||[M:2/4] z a/a/ ga | [dfb]a/g/ [df]g || %24
 [GBe][GBe] z B/B/!D.S.! ||[K:Eb]O [GBe][GBe] z e/e/ |:[K:Ab] ec z [ca]/[ca]/ | [ca][ce] z [ce] | %28
 [cc']>b a/g/f/e/ | dB z d/d/ | dB z [Bg]/[Bg]/ | [Bg][Be] z [Be] ||1 b>a g/f/e/d/ | c2 z e/e/ :|2 %34
 b>a g/a/b/c'/ || [ca] z [Ac]2 ||[M:6/8] [Ae]6- | [Ae]dc B2 A | [GB]6 | [Gd] B2 G [Be]2 | [Gd]6- | %41
 [Gd]Bc dcB | [CA]2 z z2 z | e c2 A [Ac]2 | [Ae]6- | [Ae] [Ac]2 [Bd] [ce]2 | [Af]6 || %47
[M:2/4] z d/d/ cd | [GBe]d/c/ [GB]c || [CEA][CEA] z B/B/!dacoda! ||[K:Ab]O [CEA][CEA] z2 |] %51
V:2
 z z |: E,2 [G,B,][G,B,] | E,2 [G,B,][G,B,] | z2 [G,B,][G,B,] | F,2 [A,B,][A,B,] | %5
 F,2 [A,B,][A,B,] | B,,2 [A,B,][A,B,] ||1 z2 [A,B,][A,B,] | E,2 [G,B,][G,B,] :|2 %9
 z [A,B,] z [A,B,] || [E,B,]2 [B,,B,]2 ||[M:6/8] z [G,B,]E, [G,B,]E, z | z [G,B,]E, [G,B,]E, z | %13
 z [A,B,]F, [A,B,]F, z | z [A,B,]F, [A,B,]F, z | z [A,B,]F, [A,B,]F, z | z [A,B,]F, [A,B,]F, z | %17
 z [G,B,]E, [G,B,]E, z | z [G,B,]E, [G,B,]E, z | z [G,B,]E, [G,B,]E, z | z [G,B,]E, [G,B,]E, z | %21
 z [E,B,]C, F,E, z ||[M:2/4] [A,,A,] z z2 | [F,,F,] z [B,,B,] z || [E,B,][E,B,] z2 || %25
[K:Eb] [E,B,][E,B,] z2 |:[K:Ab] z [CE] [CE] z | z [CE] [CE] z | z [CE] z [CE] | B,2 [DE][DE] | %30
 z [DE] z [DE] | E,2 [DE][DE] ||1 z [DE] z [DE] | A,2 [CE][CE] :|2 z [DE] z [DE] || %35
 [A,CE] z [A,,A,]2 ||[M:6/8] z [A,C]E, [A,C]E, z | z [A,C]E, [A,C]E, z | z [G,B,]E, [G,B,]E, z | %39
 z [G,B,]E, [G,B,]E, z | z [G,B,]E, [G,B,]E, z | z [G,B,]E, [G,B,]E, z | z [G,B,]E, [G,B,]E, z | %43
 z [A,C]E, [A,C]E, z | z [A,C]E, [A,C]E, z | z [A,C]E, [A,C]E, z | z [A,D]F, B,A, z || %47
[M:2/4] [D,D] z z2 | [B,,B,]2 [E,,E,]2 || [A,,E,][A,,E,] z2 ||[K:Ab] [A,,E,][A,,E,] z2 |] %51
V:3
 x2 |: x4 | x4 | G4 | x4 | x4 | x4 ||1 F4 | x4 :|2 G4 || x4 ||[M:6/8] x6 | x6 | z2 B, DFA- | z6 | %15
 x6 | x6 | z2 B, EGB- | z6 | x6 | x6 | x6 ||[M:2/4] x4 | x4 || x4 ||[K:Eb] x4 |:[K:Ab] x4 | x4 | %28
 z4 | x4 | x4 | x4 ||1 B4 | z4 :|2 B4 || x4 ||[M:6/8] x6 | x6 | z2 E GBd- | x6 | x6 | x6 | %42
 z2 E Ace- | x6 | x6 | x6 | x6 ||[M:2/4] x4 | x4 || x4 ||[K:Ab] x4 |] %51
V:4
 x2 |: x4 | x4 | E,2 B,,2 | x4 | x4 | x4 ||1 F,2 B,,2 | x4 :|2 F,2 B,,2 || x4 ||[M:6/8] x6 | x6 | %13
 x6 | x6 | x6 | x6 | x6 | x6 | x6 | x6 | x6 ||[M:2/4] x4 | x4 || x4 ||[K:Eb] x4 |:[K:Ab] A,2 z2 | %27
 A,2 z2 | A,2 E,2 | x4 | B,2 z2 | x4 ||1 B,2 E,2 | x4 :|2 B,2 E,2 || x4 ||[M:6/8] x6 | x6 | x6 | %39
 x6 | x6 | x6 | x6 | x6 | x6 | x6 | x6 ||[M:2/4] x4 | x4 || x4 ||[K:Ab] x4 |] %51

